public/fonts/icons/instructure.svg

<svg xmlns="http://www.w3.org/2000/svg" width="32" height="32" viewBox="0 0 32 32"><title>Instructure</title><path d="M4.742 15.965c0 2.34-1.756 4.27-4.024 4.548-.376-1.453-.576-2.978-.576-4.548s.2-3.094.576-4.548a4.585 4.585 0 0 1 4.024 4.548zm2.666-1.438a1.437 1.437 0 1 0 0 2.875 1.437 1.437 0 0 0 0-2.875zm19.85 1.438c0 2.34 1.755 4.27 4.022 4.548.376-1.453.577-2.978.577-4.548s-.2-3.094-.577-4.548a4.584 4.584 0 0 0-4.023 4.548zm-2.667-1.438a1.438 1.438 0 1 0 0 2.876 1.438 1.438 0 0 0 0-2.876zm-8.62 12.736a4.584 4.584 0 0 0-4.547 4.023c1.454.376 2.977.577 4.548.577s3.095-.2 4.55-.577a4.586 4.586 0 0 0-4.55-4.023zm0-4.105a1.44 1.44 0 1 0 .003 2.878 1.44 1.44 0 0 0-.002-2.878zm0-18.42c2.342 0 4.27-1.758 4.55-4.025C19.064.338 17.542.137 15.97.137s-3.094.2-4.55.576a4.586 4.586 0 0 0 4.55 4.024zm0 1.227a1.438 1.438 0 1 0 0 2.876 1.438 1.438 0 0 0 0-2.875zm7.975 17.973a4.586 4.586 0 0 0-.374 6.057 18.194 18.194 0 0 0 6.43-6.43 4.586 4.586 0 0 0-6.056.373zm-2.903-2.9zM8.022 8.015a4.585 4.585 0 0 0 .374-6.056 18.186 18.186 0 0 0-6.43 6.43 4.585 4.585 0 0 0 6.057-.374zm.868.868a1.438 1.438 0 1 0 0 0zM23.935 8a4.584 4.584 0 0 0 6.056.375 18.183 18.183 0 0 0-6.428-6.43A4.584 4.584 0 0 0 23.936 8zm-.868 2.903a1.44 1.44 0 0 0-2.034-2.034 1.44 1.44 0 0 0 2.034 2.033zM8.013 23.92a4.586 4.586 0 0 0-6.056-.373 18.19 18.19 0 0 0 6.43 6.43 4.584 4.584 0 0 0-.375-6.056zm.87-2.9a1.438 1.438 0 1 0 2.034 2.034A1.438 1.438 0 0 0 8.88 21.02z"/></svg>

<?xml version="1.0" encoding="utf-8"?>

<!DOCTYPE svg PUBLIC "-//W3C//DTD SVG 1.1//EN" "http://www.w3.org/Graphics/SVG/1.1/DTD/svg11.dtd">
<svg version="1.1" xmlns="http://www.w3.org/2000/svg" xmlns:xlink="http://www.w3.org/1999/xlink" width="32" height="32" viewBox="0 0 32 32">
<g>
</g>
	<path d="M4.742 15.965c0 2.341-1.756 4.27-4.024 4.548-0.376-1.453-0.576-2.978-0.576-4.548s0.2-3.094 0.576-4.548c2.267 0.279 4.024 2.206 4.024 4.548zM7.408 14.527c-0.794 0-1.437 0.644-1.437 1.438s0.644 1.438 1.437 1.438c0.794 0 1.438-0.644 1.438-1.438s-0.644-1.438-1.438-1.438zM27.257 15.965c0 2.341 1.756 4.27 4.023 4.548 0.376-1.453 0.577-2.978 0.577-4.548s-0.201-3.094-0.577-4.548c-2.267 0.279-4.023 2.206-4.023 4.548zM24.591 14.527c-0.794 0-1.438 0.644-1.438 1.438s0.643 1.438 1.438 1.438c0.794 0 1.438-0.644 1.438-1.438s-0.644-1.438-1.438-1.438zM15.97 27.263c-2.341 0-4.269 1.757-4.547 4.023 1.454 0.376 2.977 0.577 4.548 0.577s3.094-0.201 4.548-0.577c-0.279-2.266-2.207-4.023-4.549-4.023zM15.971 23.158c-0.794 0-1.438 0.645-1.438 1.439s0.644 1.438 1.438 1.438c0.793 0 1.438-0.643 1.438-1.438s-0.644-1.439-1.438-1.439zM15.971 4.737c2.341 0 4.269-1.757 4.548-4.024-1.454-0.375-2.976-0.576-4.547-0.576s-3.094 0.201-4.549 0.576c0.279 2.267 2.207 4.024 4.549 4.024zM15.971 5.965c-0.794 0-1.438 0.644-1.438 1.438 0 0.793 0.644 1.437 1.438 1.437 0.793 0 1.438-0.644 1.438-1.437-0-0.794-0.644-1.438-1.438-1.438zM23.945 23.938c-1.654 1.655-1.776 4.258-0.374 6.057 2.65-1.562 4.868-3.781 6.429-6.431-1.799-1.402-4.402-1.279-6.056 0.374zM21.042 21.037c-0.561 0.561-0.561 1.472 0 2.033 0.562 0.562 1.472 0.562 2.034 0 0.561-0.562 0.561-1.472 0-2.033-0.562-0.561-1.472-0.561-2.034 0zM8.022 8.016c1.654-1.654 1.776-4.257 0.374-6.056-2.651 1.562-4.868 3.779-6.43 6.43 1.799 1.403 4.403 1.28 6.057-0.374zM8.89 8.884c-0.56 0.562-0.56 1.472 0 2.034 0.562 0.561 1.473 0.561 2.033 0s0.561-1.472 0-2.034c-0.561-0.561-1.472-0.561-2.033 0zM23.935 8.001c1.654 1.654 4.257 1.777 6.056 0.374-1.561-2.651-3.779-4.868-6.429-6.43-1.403 1.798-1.28 4.402 0.374 6.056zM23.067 10.903c0.561-0.562 0.561-1.472 0-2.034-0.562-0.561-1.473-0.561-2.034 0s-0.561 1.472 0 2.034c0.561 0.561 1.472 0.561 2.034 0zM8.013 23.921c-1.654-1.653-4.257-1.776-6.056-0.374 1.562 2.651 3.779 4.869 6.43 6.431 1.403-1.799 1.28-4.402-0.375-6.057zM8.882 21.020c-0.56 0.561-0.56 1.472 0 2.033 0.562 0.562 1.473 0.562 2.034 0s0.562-1.472 0-2.033c-0.561-0.562-1.472-0.562-2.034 0z" fill="#000000"></path>
</svg>
